artwork/icons/blukis/upload.svg

<?xml version="1.0" encoding="UTF-8" standalone="no"?>
<!-- Created with Inkscape (http://www.inkscape.org/) -->

<svg
   xmlns:dc="http://purl.org/dc/elements/1.1/"
   xmlns:cc="http://creativecommons.org/ns#"
   xmlns:rdf="http://www.w3.org/1999/02/22-rdf-syntax-ns#"
   xmlns:svg="http://www.w3.org/2000/svg"
   xmlns="http://www.w3.org/2000/svg"
   xmlns:sodipodi="http://sodipodi.sourceforge.net/DTD/sodipodi-0.dtd"
   xmlns:inkscape="http://www.inkscape.org/namespaces/inkscape"
   width="48"
   height="48"
   id="svg2300"
   sodipodi:version="0.32"
   inkscape:version="0.47 r22583"
   version="1.0"
   sodipodi:docname="upload.svg"
   inkscape:output_extension="org.inkscape.output.svg.inkscape"
   sodipodi:modified="true"
   inkscape:export-filename="48x48\upload.png"
   inkscape:export-xdpi="90"
   inkscape:export-ydpi="90">
  <defs
     id="defs2302">
    <inkscape:perspective
       sodipodi:type="inkscape:persp3d"
       inkscape:vp_x="0 : 45 : 1"
       inkscape:vp_y="0 : 1000 : 0"
       inkscape:vp_z="90 : 45 : 1"
       inkscape:persp3d-origin="45 : 30 : 1"
       id="perspective26" />
    <filter
       inkscape:collect="always"
       x="-0.11727078"
       width="1.2345417"
       y="-0.18028408"
       height="1.3605682"
       id="filter4374"
       color-interpolation-filters="sRGB">
      <feGaussianBlur
         inkscape:collect="always"
         stdDeviation="2.3014391"
         id="feGaussianBlur4376" />
    </filter>
    <clipPath
       clipPathUnits="userSpaceOnUse"
       id="clipPath3642">
      <rect
         style="fill:#f300a2;fill-opacity:0.32098766;stroke:none"
         id="rect3609"
         width="32.243084"
         height="58.073177"
         x="551.87329"
         y="975.05005" />
    </clipPath>
    <clipPath
       clipPathUnits="userSpaceOnUse"
       id="clipPath4785">
      <path
         sodipodi:nodetypes="cscccc"
         id="path4787"
         d="m 126.71477,349.26711 c -0.13984,-5.23614 -3.35931,-7.28171 -7.47161,-8.15261 -4.15068,-0.87903 -5.95446,-3.76122 -5.61179,-10.23848 l -4.75388,2.91426 0.12438,15.60992 17.7129,-0.13309 z"
         style="fill:none;stroke:#000000;stroke-width:0.99999994px;stroke-linecap:butt;stroke-linejoin:miter;stroke-opacity:1" />
    </clipPath>
    <clipPath
       clipPathUnits="userSpaceOnUse"
       id="clipPath5889">
      <path
         inkscape:export-ydpi="20.608969"
         inkscape:export-xdpi="20.608969"
         inkscape:export-filename="C:\bfiles\Projects\FileZilla toolbar\path6567.png"
         sodipodi:nodetypes="ccccccc"
         id="path5891"
         d="m 114.86786,215.1799 0.0114,40.65998 46.18499,-4.7e-4 -0.0263,-38.09465 -10.03255,-7.85634 -36.11506,-0.0208 -0.0225,5.31227 z"
         style="fill:none;stroke:#ee4747;stroke-width:0.27000001;stroke-linecap:butt;stroke-linejoin:round;stroke-miterlimit:4;stroke-opacity:1;stroke-dasharray:none" />
    </clipPath>
    <inkscape:perspective
       id="perspective3616"
       inkscape:persp3d-origin="0.5 : 0.33333333 : 1"
       inkscape:vp_z="1 : 0.5 : 1"
       inkscape:vp_y="0 : 1000 : 0"
       inkscape:vp_x="0 : 0.5 : 1"
       sodipodi:type="inkscape:persp3d" />
    <inkscape:perspective
       id="perspective3631"
       inkscape:persp3d-origin="0.5 : 0.33333333 : 1"
       inkscape:vp_z="1 : 0.5 : 1"
       inkscape:vp_y="0 : 1000 : 0"
       inkscape:vp_x="0 : 0.5 : 1"
       sodipodi:type="inkscape:persp3d" />
    <filter
       inkscape:collect="always"
       x="-0.11727078"
       width="1.2345417"
       y="-0.18028408"
       height="1.3605682"
       id="filter4374-1"
       color-interpolation-filters="sRGB">
      <feGaussianBlur
         inkscape:collect="always"
         stdDeviation="2.3014391"
         id="feGaussianBlur4376-7" />
    </filter>
    <inkscape:perspective
       id="perspective3658"
       inkscape:persp3d-origin="0.5 : 0.33333333 : 1"
       inkscape:vp_z="1 : 0.5 : 1"
       inkscape:vp_y="0 : 1000 : 0"
       inkscape:vp_x="0 : 0.5 : 1"
       sodipodi:type="inkscape:persp3d" />
    <filter
       inkscape:collect="always"
       x="-0.11727078"
       width="1.2345417"
       y="-0.18028408"
       height="1.3605682"
       id="filter4374-1-4"
       color-interpolation-filters="sRGB">
      <feGaussianBlur
         inkscape:collect="always"
         stdDeviation="2.3014391"
         id="feGaussianBlur4376-7-0" />
    </filter>
    <inkscape:perspective
       id="perspective2851"
       inkscape:persp3d-origin="0.5 : 0.33333333 : 1"
       inkscape:vp_z="1 : 0.5 : 1"
       inkscape:vp_y="0 : 1000 : 0"
       inkscape:vp_x="0 : 0.5 : 1"
       sodipodi:type="inkscape:persp3d" />
    <inkscape:perspective
       id="perspective3639"
       inkscape:persp3d-origin="0.5 : 0.33333333 : 1"
       inkscape:vp_z="1 : 0.5 : 1"
       inkscape:vp_y="0 : 1000 : 0"
       inkscape:vp_x="0 : 0.5 : 1"
       sodipodi:type="inkscape:persp3d" />
    <filter
       inkscape:collect="always"
       x="-0.11727078"
       width="1.2345417"
       y="-0.18028408"
       height="1.3605682"
       id="filter4374-1-1"
       color-interpolation-filters="sRGB">
      <feGaussianBlur
         inkscape:collect="always"
         stdDeviation="2.3014391"
         id="feGaussianBlur4376-7-7" />
    </filter>
  </defs>
  <sodipodi:namedview
     id="base"
     pagecolor="#ffffff"
     bordercolor="#666666"
     borderopacity="1.0"
     gridtolerance="10000"
     guidetolerance="10"
     objecttolerance="10"
     inkscape:pageopacity="0.0"
     inkscape:pageshadow="2"
     inkscape:zoom="8.4447466"
     inkscape:cx="33.714851"
     inkscape:cy="21.043498"
     inkscape:document-units="px"
     inkscape:current-layer="layer1"
     width="1in"
     height="1in"
     units="in"
     showgrid="true"
     gridanglex="0.33333333in"
     gridanglez="0.33333333in"
     grid_units="in"
     inkscape:window-width="910"
     inkscape:window-height="852"
     inkscape:window-x="509"
     inkscape:window-y="78"
     inkscape:grid-bbox="true"
     inkscape:grid-points="false"
     inkscape:snap-grids="false"
     inkscape:window-maximized="0">
    <inkscape:grid
       id="GridFromPre046Settings"
       type="xygrid"
       originx="0px"
       originy="0px"
       spacingx="1px"
       spacingy="1px"
       color="#0000ff"
       empcolor="#0000ff"
       opacity="0.2"
       empopacity="0.4"
       empspacing="3"
       units="px"
       visible="true"
       enabled="true"
       snapvisiblegridlinesonly="true" />
  </sodipodi:namedview>
  <metadata
     id="metadata2305">
    <rdf:RDF>
      <cc:Work
         rdf:about="">
        <dc:format>image/svg+xml</dc:format>
        <dc:type
           rdf:resource="http://purl.org/dc/dcmitype/StillImage" />
        <dc:title></dc:title>
      </cc:Work>
    </rdf:RDF>
  </metadata>
  <g
     inkscape:label="Layer 1"
     inkscape:groupmode="layer"
     id="layer1"
     transform="translate(0,-42)">
    <g
       id="g3357-4"
       transform="matrix(0.71096516,0,0,0.71094436,-128.06053,-69.615872)"
       inkscape:export-filename="C:\bfiles\Projects\FileZilla toolbar\path6567.png"
       inkscape:export-xdpi="42.661114"
       inkscape:export-ydpi="42.661114">
      <path
         inkscape:export-ydpi="63.991669"
         inkscape:export-xdpi="63.991669"
         inkscape:export-filename="C:\bfiles\Projects\FileZilla toolbar\path6567.png"
         sodipodi:nodetypes="cccccccccc"
         id="path3349-0"
         d="m 190.17677,194.4881 5.87101,13.73962 25.29315,-10.99449 4.24442,9.82435 12.45727,-25.71859 -24.47576,-6.95837 -2.17409,-0.61808 0.8166,2.09815 2.98931,7.68065 -25.02191,10.94676 z"
         style="fill:#8ddc40;fill-opacity:1;fill-rule:evenodd;stroke:#4d7c1e;stroke-width:1.40655923000000000;stroke-linecap:butt;stroke-linejoin:round;stroke-miterlimit:4;stroke-opacity:1;stroke-dasharray:none" />
      <path
         transform="translate(-11.636374,46.601175)"
         inkscape:export-ydpi="63.991669"
         inkscape:export-xdpi="63.991669"
         inkscape:export-filename="C:\bfiles\Projects\FileZilla toolbar\path6567.png"
         d="m 227.59375,131.5 1.5,3.84375 a 3.1619988,3.1619988 0 0 1 -1.65625,4.0625 l -22.15625,9.6875 3.375,7.9375 22.40625,-9.75 a 3.1619988,3.1619988 0 0 1 4.15625,1.65625 l 1.5,3.46875 7.8125,-16.125 -16.9375,-4.78125 z"
         id="path3351-9"
         style="fill:#5b9c1c;fill-opacity:1;fill-rule:evenodd;stroke:none;filter:url(#filter4374-1-1)"
         inkscape:original="M 222.34375 126.71875 L 223.15625 128.8125 L 226.15625 136.5 L 201.125 147.4375 L 207 161.1875 L 232.3125 150.1875 L 236.53125 160 L 249 134.28125 L 224.53125 127.34375 L 222.34375 126.71875 z "
         inkscape:radius="-3.1616826"
         sodipodi:type="inkscape:offset" />
      <path
         inkscape:export-ydpi="63.991669"
         inkscape:export-xdpi="63.991669"
         inkscape:export-filename="C:\bfiles\Projects\FileZilla toolbar\path6567.png"
         sodipodi:nodetypes="cccc"
         id="path3353-4"
         d="m 214.78187,176.72182 3.00485,4.81021 17.29685,1.06537 -20.3017,-5.87558 z"
         style="fill:#d6f9b5;fill-opacity:1;fill-rule:evenodd;stroke:none" />
      <path
         inkscape:export-ydpi="63.991669"
         inkscape:export-xdpi="63.991669"
         inkscape:export-filename="C:\bfiles\Projects\FileZilla toolbar\path6567.png"
         sodipodi:nodetypes="cccccc"
         id="path3355-8"
         d="m 214.20567,185.72992 -20.96489,9.37942 0,0 2.49022,2.24892 18.26938,-9.95705 0.20529,-1.67129 z"
         style="fill:#d6f9b5;fill-opacity:1;fill-rule:evenodd;stroke:none" />
    </g>
    <g
       id="g3357"
       transform="matrix(0.71096516,0,0,0.71094436,-81.844892,-82.087857)"
       inkscape:export-filename="C:\bfiles\Projects\FileZilla toolbar\path6567.png"
       inkscape:export-xdpi="42.661114"
       inkscape:export-ydpi="42.661114">
      <path
         inkscape:export-ydpi="63.991669"
         inkscape:export-xdpi="63.991669"
         inkscape:export-filename="C:\bfiles\Projects\FileZilla toolbar\path6567.png"
         sodipodi:nodetypes="cccccccccc"
         id="path3349"
         d="m 190.17677,194.4881 5.87101,13.73962 25.29315,-10.99449 4.24442,9.82435 12.45727,-25.71859 -24.47576,-6.95837 -2.17409,-0.61808 0.8166,2.09815 2.98931,7.68065 -25.02191,10.94676 z"
         style="fill:#87c56b;fill-opacity:1;fill-rule:evenodd;stroke:#4a7e33;stroke-width:1.40655923;stroke-linecap:butt;stroke-linejoin:round;stroke-miterlimit:4;stroke-opacity:1;stroke-dasharray:none" />
      <path
         transform="translate(-11.636374,46.601175)"
         inkscape:export-ydpi="63.991669"
         inkscape:export-xdpi="63.991669"
         inkscape:export-filename="C:\bfiles\Projects\FileZilla toolbar\path6567.png"
         d="m 227.59375,131.5 1.5,3.84375 a 3.1619988,3.1619988 0 0 1 -1.65625,4.0625 l -22.15625,9.6875 3.375,7.9375 22.40625,-9.75 a 3.1619988,3.1619988 0 0 1 4.15625,1.65625 l 1.5,3.46875 7.8125,-16.125 -16.9375,-4.78125 z"
         id="path3351"
         style="fill:#489628;fill-opacity:1;fill-rule:evenodd;stroke:none;filter:url(#filter4374-1)"
         inkscape:original="M 222.34375 126.71875 L 223.15625 128.8125 L 226.15625 136.5 L 201.125 147.4375 L 207 161.1875 L 232.3125 150.1875 L 236.53125 160 L 249 134.28125 L 224.53125 127.34375 L 222.34375 126.71875 z "
         inkscape:radius="-3.1616826"
         sodipodi:type="inkscape:offset" />
      <path
         inkscape:export-ydpi="63.991669"
         inkscape:export-xdpi="63.991669"
         inkscape:export-filename="C:\bfiles\Projects\FileZilla toolbar\path6567.png"
         sodipodi:nodetypes="cccc"
         id="path3353"
         d="m 214.78187,176.72182 3.00485,4.81021 17.29685,1.06537 -20.3017,-5.87558 z"
         style="fill:#d4efd0;fill-opacity:1;fill-rule:evenodd;stroke:none" />
      <path
         inkscape:export-ydpi="63.991669"
         inkscape:export-xdpi="63.991669"
         inkscape:export-filename="C:\bfiles\Projects\FileZilla toolbar\path6567.png"
         sodipodi:nodetypes="cccccc"
         id="path3355"
         d="m 214.20567,185.72992 -20.96489,9.37942 0,0 2.49022,2.24892 18.26938,-9.95705 0.20529,-1.67129 z"
         style="fill:#d4efd0;fill-opacity:1;fill-rule:evenodd;stroke:none" />
    </g>
    <g
       id="g4698"
       transform="matrix(0.71147209,0,0,0.71145126,-153.01613,6.876048)"
       inkscape:export-filename="C:\bfiles\Projects\FileZilla toolbar\path6567.png"
       inkscape:export-xdpi="63.991653"
       inkscape:export-ydpi="63.991653">
      <path
         inkscape:export-ydpi="63.991669"
         inkscape:export-xdpi="63.991669"
         inkscape:export-filename="C:\bfiles\Projects\FileZilla toolbar\path6567.png"
         sodipodi:nodetypes="cccccccccc"
         id="path4682"
         d="m 162.99458,80.44063 5.87101,13.73962 25.29315,-10.99449 4.24442,9.82435 12.45727,-25.71859 -24.47576,-6.95837 -2.17409,-0.61808 0.8166,2.09815 2.98931,7.68065 -25.02191,10.94676 z"
         style="fill:#f48686;fill-opacity:1;fill-rule:evenodd;stroke:#bf3333;stroke-width:1.40555704;stroke-linecap:butt;stroke-linejoin:round;stroke-miterlimit:4;stroke-opacity:1;stroke-dasharray:none" />
      <path
         transform="translate(-38.14343,-66.99619)"
         inkscape:export-ydpi="63.991669"
         inkscape:export-xdpi="63.991669"
         inkscape:export-filename="C:\bfiles\Projects\FileZilla toolbar\path6567.png"
         d="m 227.59375,131.5 1.5,3.84375 a 3.1619988,3.1619988 0 0 1 -1.65625,4.0625 l -22.15625,9.6875 3.375,7.9375 22.40625,-9.75 a 3.1619988,3.1619988 0 0 1 4.15625,1.65625 l 1.5,3.46875 7.8125,-16.125 -16.9375,-4.78125 z"
         id="path4684"
         style="fill:#d94646;fill-opacity:1;fill-rule:evenodd;stroke:none;filter:url(#filter4374)"
         inkscape:original="M 222.34375 126.71875 L 223.15625 128.8125 L 226.15625 136.5 L 201.125 147.4375 L 207 161.1875 L 232.3125 150.1875 L 236.53125 160 L 249 134.28125 L 224.53125 127.34375 L 222.34375 126.71875 z "
         inkscape:radius="-3.1616826"
         sodipodi:type="inkscape:offset" />
      <path
         style="fill:#efd0d0;fill-opacity:1;fill-rule:evenodd;stroke:none"
         d="m 187.05485,71.49056 -20.96489,9.37942 0,0 2.49022,2.24892 18.26938,-9.95705 0.20529,-1.67129 z"
         id="path4690"
         sodipodi:nodetypes="cccccc"
         inkscape:export-filename="C:\bfiles\Projects\FileZilla toolbar\path6567.png"
         inkscape:export-xdpi="63.991669"
         inkscape:export-ydpi="63.991669" />
      <path
         style="fill:#efd0d0;fill-opacity:1;fill-rule:evenodd;stroke:none"
         d="m 187.13176,62.405008 3.00485,4.81021 17.29685,1.06537 -20.3017,-5.87558 z"
         id="path4692"
         sodipodi:nodetypes="cccc"
         inkscape:export-filename="C:\bfiles\Projects\FileZilla toolbar\path6567.png"
         inkscape:export-xdpi="63.991669"
         inkscape:export-ydpi="63.991669" />
    </g>
    <g
       id="g3357-9"
       transform="matrix(0.71096516,0,0,0.71094436,-171.86745,-59.055675)"
       inkscape:export-filename="C:\bfiles\Projects\FileZilla toolbar\path6567.png"
       inkscape:export-xdpi="42.661114"
       inkscape:export-ydpi="42.661114">
      <path
         inkscape:export-ydpi="63.991669"
         inkscape:export-xdpi="63.991669"
         inkscape:export-filename="C:\bfiles\Projects\FileZilla toolbar\path6567.png"
         sodipodi:nodetypes="cccccccccc"
         id="path3349-4"
         d="m 190.17677,194.4881 5.87101,13.73962 25.29315,-10.99449 4.24442,9.82435 12.45727,-25.71859 -24.47576,-6.95837 -2.17409,-0.61808 0.8166,2.09815 2.98931,7.68065 -25.02191,10.94676 z"
         style="fill:#96bd85;fill-opacity:1;fill-rule:evenodd;stroke:#598247;stroke-width:1.40655923;stroke-linecap:butt;stroke-linejoin:round;stroke-miterlimit:4;stroke-opacity:1;stroke-dasharray:none" />
      <path
         transform="translate(-10.961236,47.051281)"
         inkscape:export-ydpi="63.991669"
         inkscape:export-xdpi="63.991669"
         inkscape:export-filename="C:\bfiles\Projects\FileZilla toolbar\path6567.png"
         d="m 227.59375,131.5 1.5,3.84375 a 3.1619988,3.1619988 0 0 1 -1.65625,4.0625 l -22.15625,9.6875 3.375,7.9375 22.40625,-9.75 a 3.1619988,3.1619988 0 0 1 4.15625,1.65625 l 1.5,3.46875 7.8125,-16.125 -16.9375,-4.78125 z"
         id="path3351-8"
         style="fill:#68a151;fill-opacity:1;fill-rule:evenodd;stroke:none;filter:url(#filter4374-1-4)"
         inkscape:original="M 222.34375 126.71875 L 223.15625 128.8125 L 226.15625 136.5 L 201.125 147.4375 L 207 161.1875 L 232.3125 150.1875 L 236.53125 160 L 249 134.28125 L 224.53125 127.34375 L 222.34375 126.71875 z "
         inkscape:radius="-3.1616826"
         sodipodi:type="inkscape:offset" />
      <path
         inkscape:export-ydpi="63.991669"
         inkscape:export-xdpi="63.991669"
         inkscape:export-filename="C:\bfiles\Projects\FileZilla toolbar\path6567.png"
         sodipodi:nodetypes="cccc"
         id="path3353-8"
         d="m 214.78187,176.72182 3.00485,4.81021 17.29685,1.06537 -20.3017,-5.87558 z"
         style="fill:#d4efd0;fill-opacity:1;fill-rule:evenodd;stroke:none" />
      <path
         inkscape:export-ydpi="63.991669"
         inkscape:export-xdpi="63.991669"
         inkscape:export-filename="C:\bfiles\Projects\FileZilla toolbar\path6567.png"
         sodipodi:nodetypes="cccccc"
         id="path3355-2"
         d="m 214.20567,185.72992 -20.96489,9.37942 0,0 2.49022,2.24892 18.26938,-9.95705 0.20529,-1.67129 z"
         style="fill:#d4efd0;fill-opacity:1;fill-rule:evenodd;stroke:none" />
    </g>
  </g>
</svg>

<?xml version="1.0" encoding="UTF-8" standalone="no"?>
<!-- Created with Inkscape (http://www.inkscape.org/) -->
<svg
   xmlns:dc="http://purl.org/dc/elements/1.1/"
   xmlns:cc="http://web.resource.org/cc/"
   xmlns:rdf="http://www.w3.org/1999/02/22-rdf-syntax-ns#"
   xmlns:svg="http://www.w3.org/2000/svg"
   xmlns="http://www.w3.org/2000/svg"
   xmlns:sodipodi="http://sodipodi.sourceforge.net/DTD/sodipodi-0.dtd"
   xmlns:inkscape="http://www.inkscape.org/namespaces/inkscape"
   width="90"
   height="90"
   id="svg2300"
   sodipodi:version="0.32"
   inkscape:version="0.45.1"
   version="1.0"
   sodipodi:docname="upload.svg"
   sodipodi:docbase="C:\projects\Filezilla_art\icons\blukis"
   inkscape:output_extension="org.inkscape.output.svg.inkscape"
   inkscape:export-filename="C:\temp\fz-temp\48x48\upload.png"
   inkscape:export-xdpi="48"
   inkscape:export-ydpi="48">
  <defs
     id="defs2302">
    <filter
       inkscape:collect="always"
       x="-0.11727078"
       width="1.2345416"
       y="-0.18028409"
       height="1.3605682"
       id="filter4374">
      <feGaussianBlur
         inkscape:collect="always"
         stdDeviation="2.3014391"
         id="feGaussianBlur4376" />
    </filter>
    <clipPath
       clipPathUnits="userSpaceOnUse"
       id="clipPath3642">
      <rect
         style="opacity:1;fill:#f300a2;fill-opacity:0.32098766;stroke:none;stroke-width:7;stroke-linecap:butt;stroke-linejoin:miter;stroke-miterlimit:4;stroke-dasharray:none;stroke-opacity:1"
         id="rect3609"
         width="32.243084"
         height="58.073177"
         x="551.87329"
         y="975.05005" />
    </clipPath>
    <clipPath
       clipPathUnits="userSpaceOnUse"
       id="clipPath4785">
      <path
         sodipodi:nodetypes="cscccc"
         id="path4787"
         d="M 126.71477,349.26711 C 126.57493,344.03097 123.35546,341.9854 119.24316,341.1145 C 115.09248,340.23547 113.2887,337.35328 113.63137,330.87602 L 108.87749,333.79028 L 109.00187,349.4002 L 126.71477,349.26711 z "
         style="fill:none;fill-opacity:0.75;fill-rule:evenodd;stroke:#000000;stroke-width:0.99999994px;stroke-linecap:butt;stroke-linejoin:miter;stroke-opacity:1" />
    </clipPath>
    <clipPath
       clipPathUnits="userSpaceOnUse"
       id="clipPath5889">
      <path
         inkscape:export-ydpi="20.608969"
         inkscape:export-xdpi="20.608969"
         inkscape:export-filename="C:\bfiles\Projects\FileZilla toolbar\path6567.png"
         sodipodi:nodetypes="ccccccc"
         id="path5891"
         d="M 114.86786,215.1799 L 114.87924,255.83988 L 161.06423,255.83941 L 161.03798,217.74476 L 151.00543,209.88842 L 114.89037,209.86763 L 114.86786,215.1799 z "
         style="fill:none;fill-opacity:1;fill-rule:evenodd;stroke:#ee4747;stroke-width:0.27000001;stroke-linecap:butt;stroke-linejoin:round;stroke-miterlimit:4;stroke-dasharray:none;stroke-opacity:1" />
    </clipPath>
  </defs>
  <sodipodi:namedview
     id="base"
     pagecolor="#ffffff"
     bordercolor="#666666"
     borderopacity="1.0"
     gridtolerance="10000"
     guidetolerance="10"
     objecttolerance="10"
     inkscape:pageopacity="0.0"
     inkscape:pageshadow="2"
     inkscape:zoom="4.3777778"
     inkscape:cx="45"
     inkscape:cy="45"
     inkscape:document-units="in"
     inkscape:current-layer="layer1"
     width="1in"
     height="1in"
     units="in"
     gridspacingx="0.0625in"
     gridspacingy="0.0625in"
     showgrid="true"
     gridanglex="0.33333333in"
     gridanglez="0.33333333in"
     grid_units="in"
     gridempspacing="8"
     inkscape:window-width="748"
     inkscape:window-height="579"
     inkscape:window-x="124"
     inkscape:window-y="318"
     inkscape:grid-bbox="true"
     inkscape:grid-points="false"
     gridoriginx="0in" />
  <metadata
     id="metadata2305">
    <rdf:RDF>
      <cc:Work
         rdf:about="">
        <dc:format>image/svg+xml</dc:format>
        <dc:type
           rdf:resource="http://purl.org/dc/dcmitype/StillImage" />
      </cc:Work>
    </rdf:RDF>
  </metadata>
  <g
     inkscape:label="Layer 1"
     inkscape:groupmode="layer"
     id="layer1">
    <g
       id="g4698"
       transform="matrix(1.3331593,0,0,1.3331203,-203.82516,-57.063544)"
       inkscape:export-filename="C:\bfiles\Projects\FileZilla toolbar\path6567.png"
       inkscape:export-xdpi="63.991653"
       inkscape:export-ydpi="63.991653">
      <path
         inkscape:export-ydpi="63.991669"
         inkscape:export-xdpi="63.991669"
         inkscape:export-filename="C:\bfiles\Projects\FileZilla toolbar\path6567.png"
         sodipodi:nodetypes="cccccccccc"
         id="path4682"
         d="M 162.99458,80.44063 L 168.86559,94.18025 L 194.15874,83.18576 L 198.40316,93.01011 L 210.86043,67.29152 L 186.38467,60.33315 L 184.21058,59.71507 L 185.02718,61.81322 L 188.01649,69.49387 L 162.99458,80.44063 z "
         style="fill:#96bd85;fill-opacity:1;fill-rule:evenodd;stroke:#598247;stroke-width:1.22411811;stroke-linecap:butt;stroke-linejoin:round;stroke-miterlimit:4;stroke-dasharray:none;stroke-opacity:1" />
      <path
         transform="translate(-38.14343,-66.99619)"
         inkscape:export-ydpi="63.991669"
         inkscape:export-xdpi="63.991669"
         inkscape:export-filename="C:\bfiles\Projects\FileZilla toolbar\path6567.png"
         d="M 227.59375,131.5 L 229.09375,135.34375 C 229.72366,136.92297 228.992,138.7176 227.4375,139.40625 L 205.28125,149.09375 L 208.65625,157.03125 L 231.0625,147.28125 C 231.83324,146.94927 232.70433,146.93729 233.4839,147.24794 C 234.26348,147.5586 234.88758,148.16641 235.21875,148.9375 L 236.71875,152.40625 L 244.53125,136.28125 L 227.59375,131.5 z "
         id="path4684"
         style="fill:#68a151;fill-opacity:1;fill-rule:evenodd;stroke:none;stroke-width:1.22411811;stroke-linecap:butt;stroke-linejoin:round;stroke-miterlimit:4;stroke-dasharray:none;stroke-opacity:1;filter:url(#filter4374)"
         inkscape:original="M 222.34375 126.71875 L 223.15625 128.8125 L 226.15625 136.5 L 201.125 147.4375 L 207 161.1875 L 232.3125 150.1875 L 236.53125 160 L 249 134.28125 L 224.53125 127.34375 L 222.34375 126.71875 z "
         inkscape:radius="-3.1616826"
         sodipodi:type="inkscape:offset" />
      <path
         style="fill:#d4efd0;fill-opacity:1;fill-rule:evenodd;stroke:none;stroke-width:1px;stroke-linecap:butt;stroke-linejoin:miter;stroke-opacity:1"
         d="M 187.05485,71.49056 L 166.08996,80.86998 L 166.08996,80.86998 L 168.58018,83.1189 L 186.84956,73.16185 L 187.05485,71.49056 z "
         id="path4690"
         sodipodi:nodetypes="cccccc"
         inkscape:export-filename="C:\bfiles\Projects\FileZilla toolbar\path6567.png"
         inkscape:export-xdpi="63.991669"
         inkscape:export-ydpi="63.991669" />
      <path
         style="fill:#d4efd0;fill-opacity:1;fill-rule:evenodd;stroke:none;stroke-width:1px;stroke-linecap:butt;stroke-linejoin:miter;stroke-opacity:1"
         d="M 187.13176,62.405008 L 190.13661,67.215218 L 207.43346,68.280588 L 187.13176,62.405008 z "
         id="path4692"
         sodipodi:nodetypes="cccc"
         inkscape:export-filename="C:\bfiles\Projects\FileZilla toolbar\path6567.png"
         inkscape:export-xdpi="63.991669"
         inkscape:export-ydpi="63.991669" />
    </g>
  </g>
</svg>
